_inc/images/systems/logos/auto-shootemup.svg

<svg viewBox="0 0 200 40" xmlns="http://www.w3.org/2000/svg">
    <path d="M3960 13860v-990h990v-990h990v2970H3960v-990zm4950-495v-1485h990v990h990v1980H8910v-1485zM0 8910v-990h990v1980H0v-990zm2970 495v-495h990v-990h990v990h-990v990h-990v-495zm7920 0v-495h-990v-990h990v990h990v990h-990v-495zm2970-495v-990h990v1980h-990v-990zM2970 5940v-990h990v1980h-990v-990zm7920 0v-990h990v1980h-990v-990z" style="fill:#777" transform="matrix(.00105 0 0 .00103 1.287 11.247)" fill="#6d6d6d"/>
    <path d="M0 12870V9900h990v1980h990v-990h990v-990h990v-990h-990V6930h990v1980h990V6930h990V2970h990V0h990v2970h990v3960h990v1980h990V6930h990v1980h-990v990h990v990h990v990h990V9900h990v5940h-990v-990h-990v-990h-990v-990H9900v-990h-990v1980h-990v1980h-990v-1980h-990v-1980h-990v990H2970v990h-990v990H990v990H0v-2970zm6930-2475v-495h990v990h990V8910h-990v-990h-990v990h-990v1980h990v-495z" style="fill:#ccc" transform="matrix(.00105 0 0 .00103 1.287 11.247)" fill="#bfbfbf"/>
    <path d="m19.815 29.034 1.672-4.864c1.672.453 3.204.678 4.597.678 1.393 0 2.518-.059 3.373-.176l.239-1.473-2.478-.236c-1.89-.178-3.231-.599-4.02-1.269-.782-.667-1.174-1.611-1.174-2.829 0-.53.06-1.12.179-1.769.458-2.514 1.287-4.243 2.488-5.186 1.207-.944 3.075-1.415 5.602-1.415 2.528 0 4.757.246 6.687.736l-1.553 4.717c-1.731-.295-3.124-.442-4.178-.442-1.056 0-1.951.049-2.687.147l-.24 1.443 2.002.207c2.029.216 3.472.695 4.328 1.435.856.734 1.283 1.719 1.283 2.956 0 1.259-.278 2.555-.835 3.891-.279.688-.585 1.264-.916 1.729a4.355 4.355 0 0 1-1.254 1.169 7.762 7.762 0 0 1-1.383.737c-.418.17-.945.295-1.582.374-.935.137-2.08.206-3.433.206-2.468 0-4.707-.256-6.717-.766Zm33.314.324h-5.671l1.134-6.514h-4.269l-1.135 6.514h-5.671l3.284-18.421h5.671l-1.163 6.513h4.268l1.164-6.513h5.672l-3.284 18.421Zm11.224-12.262-1.374 7.664h2.359c.776 0 1.353-.091 1.732-.275.377-.19.626-.619.745-1.286l1.373-7.664H66.8c-.755 0-1.323.091-1.701.275-.378.19-.627.619-.746 1.286Zm3.433-6.601c2.527 0 4.329.488 5.404 1.464 1.074.97 1.611 2.466 1.611 4.489 0 2.024-.325 4.144-.975 6.357-.643 2.208-1.668 3.923-3.075 5.148-1.399 1.232-3.449 1.847-6.15 1.847-2.692 0-4.577-.485-5.652-1.454-1.074-.975-1.612-2.476-1.612-4.499 0-.964.139-2.234.418-3.813.279-1.584.647-2.949 1.105-4.096.458-1.154 1.074-2.152 1.85-2.997 1.494-1.631 3.852-2.446 7.076-2.446Zm15.373 6.601-1.373 7.664h2.359c.775 0 1.354-.091 1.732-.275.377-.19.626-.619.746-1.286l1.373-7.664h-2.389c-.755 0-1.323.091-1.701.275-.378.19-.627.619-.747 1.286Zm3.433-6.601c2.529 0 4.329.488 5.404 1.464 1.074.97 1.612 2.466 1.612 4.489 0 2.024-.325 4.144-.975 6.357-.644 2.208-1.669 3.923-3.074 5.148-1.402 1.232-3.451 1.847-6.151 1.847-2.693 0-4.577-.485-5.651-1.454-1.076-.975-1.613-2.476-1.613-4.499 0-.964.14-2.234.418-3.813.279-1.584.647-2.949 1.105-4.096.458-1.154 1.074-2.152 1.851-2.997 1.492-1.631 3.85-2.446 7.074-2.446Zm23.762.442-.865 4.716h-4.12l-2.419 13.705h-5.672l2.419-13.705h-4.09l.866-4.716h13.881Zm7.134-.118-.329 1.886c-.02.079-.965 2.683-2.836 7.81h-2.835v-6.809c0-.706.099-1.61.298-2.71.079-.531.477-.796 1.195-.796h3.582c.616 0 .925.206.925.619Zm13.135 7.309-.777 4.274h-5.671l-.388 2.24h6.955l-.836 4.716h-12.627l3.284-18.421h12.478l-1.552 4.716h-6.12l-.419 2.475h5.673Zm9.79 2.299-1.94 8.931h-5.911l4.359-18.421h7.403l.536 9.373h.21l3.881-9.373h7.403l-2.208 18.421h-5.941l1.252-8.931h-.208l-3.731 8.931h-4.33l-.625-8.931h-.15Zm25.733-9.49h5.671l-2.478 13.823h2.03c.697 0 1.195-.091 1.493-.275.298-.19.507-.619.627-1.286l2.209-12.262h5.67l-1.848 10.345c-.299 1.671-.645 3.016-1.036 4.037-.385 1.024-.925 1.887-1.623 2.595-.696.707-1.558 1.198-2.586 1.473-1.022.275-2.318.413-3.891.413-2.408 0-4.097-.361-5.064-1.081-.963-.714-1.444-1.945-1.444-3.694 0-.963.14-2.21.418-3.743l1.852-10.345Zm25.401 13.97h-3.701l-.776 4.451h-5.672l3.284-18.421h8.956c3.383 0 5.075 1.552 5.075 4.657 0 1.474-.209 2.803-.627 3.989-.418 1.191-.878 2.139-1.383 2.84-.511.693-1.21 1.283-2.1 1.767-.881.479-1.9.717-3.056.717Zm-.746-9.254h-1.312l-.806 4.538h1.313c.676 0 1.189-.071 1.533-.215.351-.15.576-.491.676-1.023.259-1.453.388-2.25.388-2.386 0-.374-.149-.619-.448-.737-.298-.118-.746-.177-1.344-.177Z" style="white-space:pre;fill:#fff"/>
</svg>

<?xml version="1.0" encoding="utf-8"?>
<svg viewBox="0 0 200 40" xmlns="http://www.w3.org/2000/svg">
  <g transform="matrix(0.82612, 0, 0, 0.815642, -0.221005, 3.920739)">
    <g id="g-1" fill="#6d6d6d" stroke="none" transform="matrix(0.001266, 0, 0, 0.001266, 1.82541, 8.982631)">
      <path d="M3960 13860 l0 -990 495 0 495 0 0 -495 0 -495 495 0 495 0 0 1485 0 1485 -990 0 -990 0 0 -990z" style="fill: rgb(119, 119, 119);"/>
      <path d="M8910 13365 l0 -1485 495 0 495 0 0 495 0 495 495 0 495 0 0 990 0 990 -990 0 -990 0 0 -1485z" style="fill: rgb(119, 119, 119);"/>
      <path d="M0 8910 l0 -990 495 0 495 0 0 990 0 990 -495 0 -495 0 0 -990z" style="fill: rgb(119, 119, 119);"/>
      <path d="M2970 9405 l0 -495 495 0 495 0 0 -495 0 -495 495 0 495 0 0 495 0 495 -495 0 -495 0 0 495 0 495 -495 0 -495 0 0 -495z" style="fill: rgb(119, 119, 119);"/>
      <path d="M10890 9405 l0 -495 -495 0 -495 0 0 -495 0 -495 495 0 495 0 0 495 0 495 495 0 495 0 0 495 0 495 -495 0 -495 0 0 -495z" style="fill: rgb(119, 119, 119);"/>
      <path d="M13860 8910 l0 -990 495 0 495 0 0 990 0 990 -495 0 -495 0 0 -990z" style="fill: rgb(119, 119, 119);"/>
      <path d="M2970 5940 l0 -990 495 0 495 0 0 990 0 990 -495 0 -495 0 0 -990z" style="fill: rgb(119, 119, 119);"/>
      <path d="M10890 5940 l0 -990 495 0 495 0 0 990 0 990 -495 0 -495 0 0 -990z" style="fill: rgb(119, 119, 119);"/>
    </g>
    <g id="layer2" fill="#bfbfbf" stroke="none" transform="matrix(0.001266, 0, 0, 0.001266, 1.82541, 8.982631)">
      <path d="M0 12870 l0 -2970 495 0 495 0 0 990 0 990 495 0 495 0 0 -495 0 -495 495 0 495 0 0 -495 0 -495 495 0 495 0 0 -495 0 -495 -495 0 -495 0 0 -990 0 -990 495 0 495 0 0 990 0 990 495 0 495 0 0 -990 0 -990 495 0 495 0 0 -1980 0 -1980 495 0 495 0 0 -1485 0 -1485 495 0 495 0 0 1485 0 1485 495 0 495 0 0 1980 0 1980 495 0 495 0 0 990 0 990 495 0 495 0 0 -990 0 -990 495 0 495 0 0 990 0 990 -495 0 -495 0 0 495 0 495 495 0 495 0 0 495 0 495 495 0 495 0 0 495 0 495 495 0 495 0 0 -990 0 -990 495 0 495 0 0 2970 0 2970 -495 0 -495 0 0 -495 0 -495 -495 0 -495 0 0 -495 0 -495 -495 0 -495 0 0 -495 0 -495 -990 0 -990 0 0 -495 0 -495 -495 0 -495 0 0 990 0 990 -495 0 -495 0 0 990 0 990 -495 0 -495 0 0 -990 0 -990 -495 0 -495 0 0 -990 0 -990 -495 0 -495 0 0 495 0 495 -990 0 -990 0 0 495 0 495 -495 0 -495 0 0 495 0 495 -495 0 -495 0 0 495 0 495 -495 0 -495 0 0 -2970z m6930 -2475 l0 -495 495 0 495 0 0 495 0 495 495 0 495 0 0 -990 0 -990 -495 0 -495 0 0 -495 0 -495 -495 0 -495 0 0 495 0 495 -495 0 -495 0 0 990 0 990 495 0 495 0 0 -495z" style="fill: rgb(204, 204, 204);"/>
    </g>
  </g>
  <path d="M 19.815 29.034 L 19.815 29.034 L 21.487 24.17 L 21.487 24.17 C 23.159 24.623 24.691 24.848 26.084 24.848 L 26.084 24.848 L 26.084 24.848 C 27.477 24.848 28.602 24.789 29.457 24.672 L 29.457 24.672 L 29.696 23.199 L 27.218 22.963 L 27.218 22.963 C 25.328 22.785 23.987 22.364 23.198 21.694 L 23.198 21.694 L 23.198 21.694 C 22.416 21.027 22.024 20.083 22.024 18.865 L 22.024 18.865 L 22.024 18.865 C 22.024 18.335 22.084 17.745 22.203 17.096 L 22.203 17.096 L 22.203 17.096 C 22.661 14.582 23.49 12.853 24.691 11.91 L 24.691 11.91 L 24.691 11.91 C 25.898 10.966 27.766 10.495 30.293 10.495 L 30.293 10.495 L 30.293 10.495 C 32.821 10.495 35.05 10.741 36.98 11.231 L 36.98 11.231 L 35.427 15.948 L 35.427 15.948 C 33.696 15.653 32.303 15.506 31.249 15.506 L 31.249 15.506 L 31.249 15.506 C 30.193 15.506 29.298 15.555 28.562 15.653 L 28.562 15.653 L 28.322 17.096 L 30.324 17.303 L 30.324 17.303 C 32.353 17.519 33.796 17.998 34.652 18.738 L 34.652 18.738 L 34.652 18.738 C 35.508 19.472 35.935 20.457 35.935 21.694 L 35.935 21.694 L 35.935 21.694 C 35.935 22.953 35.657 24.249 35.1 25.585 L 35.1 25.585 L 35.1 25.585 C 34.821 26.273 34.515 26.849 34.184 27.314 L 34.184 27.314 L 34.184 27.314 C 33.858 27.773 33.441 28.162 32.93 28.483 L 32.93 28.483 L 32.93 28.483 C 32.426 28.811 31.965 29.057 31.547 29.22 L 31.547 29.22 L 31.547 29.22 C 31.129 29.39 30.602 29.515 29.965 29.594 L 29.965 29.594 L 29.965 29.594 C 29.03 29.731 27.885 29.8 26.532 29.8 L 26.532 29.8 L 26.532 29.8 C 24.064 29.8 21.825 29.544 19.815 29.034 Z M 53.129 29.358 L 47.458 29.358 L 48.592 22.844 L 44.323 22.844 L 43.188 29.358 L 37.517 29.358 L 40.801 10.937 L 46.472 10.937 L 45.309 17.45 L 49.577 17.45 L 50.741 10.937 L 56.413 10.937 L 53.129 29.358 Z M 64.353 17.096 L 64.353 17.096 L 62.979 24.76 L 65.338 24.76 L 65.338 24.76 C 66.114 24.76 66.691 24.669 67.07 24.485 L 67.07 24.485 L 67.07 24.485 C 67.447 24.295 67.696 23.866 67.815 23.199 L 67.815 23.199 L 69.188 15.535 L 66.8 15.535 L 66.8 15.535 C 66.045 15.535 65.477 15.626 65.099 15.81 L 65.099 15.81 L 65.099 15.81 C 64.721 16 64.472 16.429 64.353 17.096 Z M 67.786 10.495 L 67.786 10.495 L 67.786 10.495 C 70.313 10.495 72.115 10.983 73.19 11.959 L 73.19 11.959 L 73.19 11.959 C 74.264 12.929 74.801 14.425 74.801 16.448 L 74.801 16.448 L 74.801 16.448 C 74.801 18.472 74.476 20.592 73.826 22.805 L 73.826 22.805 L 73.826 22.805 C 73.183 25.013 72.158 26.728 70.751 27.953 L 70.751 27.953 L 70.751 27.953 C 69.352 29.185 67.302 29.8 64.601 29.8 L 64.601 29.8 L 64.601 29.8 C 61.909 29.8 60.024 29.315 58.949 28.346 L 58.949 28.346 L 58.949 28.346 C 57.875 27.371 57.337 25.87 57.337 23.847 L 57.337 23.847 L 57.337 23.847 C 57.337 22.883 57.476 21.613 57.755 20.034 L 57.755 20.034 L 57.755 20.034 C 58.034 18.45 58.402 17.085 58.86 15.938 L 58.86 15.938 L 58.86 15.938 C 59.318 14.784 59.934 13.786 60.71 12.941 L 60.71 12.941 L 60.71 12.941 C 62.204 11.31 64.562 10.495 67.786 10.495 Z M 83.159 17.096 L 83.159 17.096 L 81.786 24.76 L 84.145 24.76 L 84.145 24.76 C 84.92 24.76 85.499 24.669 85.877 24.485 L 85.877 24.485 L 85.877 24.485 C 86.254 24.295 86.503 23.866 86.623 23.199 L 86.623 23.199 L 87.996 15.535 L 85.607 15.535 L 85.607 15.535 C 84.852 15.535 84.284 15.626 83.906 15.81 L 83.906 15.81 L 83.906 15.81 C 83.528 16 83.279 16.429 83.159 17.096 Z M 86.592 10.495 L 86.592 10.495 L 86.592 10.495 C 89.121 10.495 90.921 10.983 91.996 11.959 L 91.996 11.959 L 91.996 11.959 C 93.07 12.929 93.608 14.425 93.608 16.448 L 93.608 16.448 L 93.608 16.448 C 93.608 18.472 93.283 20.592 92.633 22.805 L 92.633 22.805 L 92.633 22.805 C 91.989 25.013 90.964 26.728 89.559 27.953 L 89.559 27.953 L 89.559 27.953 C 88.157 29.185 86.108 29.8 83.408 29.8 L 83.408 29.8 L 83.408 29.8 C 80.715 29.8 78.831 29.315 77.757 28.346 L 77.757 28.346 L 77.757 28.346 C 76.681 27.371 76.144 25.87 76.144 23.847 L 76.144 23.847 L 76.144 23.847 C 76.144 22.883 76.284 21.613 76.562 20.034 L 76.562 20.034 L 76.562 20.034 C 76.841 18.45 77.209 17.085 77.667 15.938 L 77.667 15.938 L 77.667 15.938 C 78.125 14.784 78.741 13.786 79.518 12.941 L 79.518 12.941 L 79.518 12.941 C 81.01 11.31 83.368 10.495 86.592 10.495 Z M 110.354 10.937 L 109.489 15.653 L 105.369 15.653 L 102.95 29.358 L 97.278 29.358 L 99.697 15.653 L 95.607 15.653 L 96.473 10.937 L 110.354 10.937 Z M 117.488 10.819 L 117.488 10.819 L 117.159 12.705 L 117.159 12.705 C 117.139 12.784 116.194 15.388 114.323 20.515 L 114.323 20.515 L 111.488 20.515 L 111.488 13.706 L 111.488 13.706 C 111.488 13 111.587 12.096 111.786 10.996 L 111.786 10.996 L 111.786 10.996 C 111.865 10.465 112.263 10.2 112.981 10.2 L 112.981 10.2 L 116.563 10.2 L 116.563 10.2 C 117.179 10.2 117.488 10.406 117.488 10.819 Z M 130.623 18.128 L 129.846 22.402 L 124.175 22.402 L 123.787 24.642 L 130.742 24.642 L 129.906 29.358 L 117.279 29.358 L 120.563 10.937 L 133.041 10.937 L 131.489 15.653 L 125.369 15.653 L 124.95 18.128 L 130.623 18.128 Z M 140.413 20.427 L 138.473 29.358 L 132.562 29.358 L 136.921 10.937 L 144.324 10.937 L 144.86 20.31 L 145.07 20.31 L 148.951 10.937 L 156.354 10.937 L 154.146 29.358 L 148.205 29.358 L 149.457 20.427 L 149.249 20.427 L 145.518 29.358 L 141.188 29.358 L 140.563 20.427 L 140.413 20.427 Z M 166.146 10.937 L 171.817 10.937 L 169.339 24.76 L 171.369 24.76 L 171.369 24.76 C 172.066 24.76 172.564 24.669 172.862 24.485 L 172.862 24.485 L 172.862 24.485 C 173.16 24.295 173.369 23.866 173.489 23.199 L 173.489 23.199 L 175.698 10.937 L 181.368 10.937 L 179.52 21.282 L 179.52 21.282 C 179.221 22.953 178.875 24.298 178.484 25.319 L 178.484 25.319 L 178.484 25.319 C 178.099 26.343 177.559 27.206 176.861 27.914 L 176.861 27.914 L 176.861 27.914 C 176.165 28.621 175.303 29.112 174.275 29.387 L 174.275 29.387 L 174.275 29.387 C 173.253 29.662 171.957 29.8 170.384 29.8 L 170.384 29.8 L 170.384 29.8 C 167.976 29.8 166.287 29.439 165.32 28.719 L 165.32 28.719 L 165.32 28.719 C 164.357 28.005 163.876 26.774 163.876 25.025 L 163.876 25.025 L 163.876 25.025 C 163.876 24.062 164.016 22.815 164.294 21.282 L 164.294 21.282 L 166.146 10.937 Z M 191.547 24.907 L 191.547 24.907 L 187.846 24.907 L 187.07 29.358 L 181.398 29.358 L 184.682 10.937 L 193.638 10.937 L 193.638 10.937 C 197.021 10.937 198.713 12.489 198.713 15.594 L 198.713 15.594 L 198.713 15.594 C 198.713 17.068 198.504 18.397 198.086 19.583 L 198.086 19.583 L 198.086 19.583 C 197.668 20.774 197.208 21.722 196.703 22.423 L 196.703 22.423 L 196.703 22.423 C 196.192 23.116 195.493 23.706 194.603 24.19 L 194.603 24.19 L 194.603 24.19 C 193.722 24.669 192.703 24.907 191.547 24.907 Z M 190.801 15.653 L 189.489 15.653 L 188.683 20.191 L 189.996 20.191 L 189.996 20.191 C 190.672 20.191 191.185 20.12 191.529 19.976 L 191.529 19.976 L 191.529 19.976 C 191.88 19.826 192.105 19.485 192.205 18.953 L 192.205 18.953 L 192.205 18.953 C 192.464 17.5 192.593 16.703 192.593 16.567 L 192.593 16.567 L 192.593 16.567 C 192.593 16.193 192.444 15.948 192.145 15.83 L 192.145 15.83 L 192.145 15.83 C 191.847 15.712 191.399 15.653 190.801 15.653 L 190.801 15.653 Z" style="white-space: pre; fill: rgb(255, 255, 255);"/>
</svg>
